X: 32003
T: Peeler And The Goat, The
R: jig
M: 6/8
K: Eminor
E/F/|G2 E F2 D|E2 F G2 A|B2 B BAG|F2 D DEF|
G2 E FF/G/D|E2 F G2 A|B2 d cBA|BGE E2||
B/c/|d2 B cBA|B2 e e2 B/c/|d2 B A2 G|F2 D DEF|
G2 E FED|E2 F G2 A|B2 d cBA|BGE E2||

